X: 1836
T: Rafflakittas klagan
S: efter August Strömberg
O: Jät, Småland
D: Svensson, Gustafsson mfl - Bålgetingen
Z: Till abc av Jon Magnusson 100511 
R: Vals
M: 3/4
L: 1/8
K: Gm
b2 c'b ab|g2 ^f2 g2|d2 ed ce|d2 c2 d2|B2 cB AB|G2 B2 d2|f2 =e2 ^c2|d4 d2|
b2 c'b ab|g2 ^f2 g2|d2 ed ce|d2 c2 d2|B2 cB AB|G2 B2 d2|b2 a2 ^f2|g6::
d'2^c'2d'2|b2a2b2|g2 b2 g2|a2f2d2|B2 cB AB|G2 B2 d2|f2 =e2 ^c2|d4 d2|
d'2^c'2d'2|b2a2b2|g2 b2 g2|a2f2d2|B2 cB AB|G2 A2 B2|A2D2 ^F2|G6::
d2 fd Bd|fd Bd f2|c2 fc Ac|fc Ac f2|BA Bd cB|AG Ac BA|G^F GB A=F|D6|
d2 fd Bd|fd Bd f2|c2 fc Ac|fc Ac f2|BA Bd cB|AG Ac BA|GB df af|g6:| 
(:musicend:)
Snabbt transkriberad från CD. Korrigera gärna felaktigheter
(:music:)
